X:1
T:Sator, SM
T:Sator, SM
T:Anonymous, 1889
T:Public Domain Courtesy of the Cyber Hymnal™
C:Anonymous, 1889
Z:Public Domain
Z:Courtesy of the Cyber Hymnal™
%%score ( 1 2 ) ( 3 4 )
L:1/8
Q:1/4=112
M:3/4
K:G
V:1 treble 
V:2 treble 
V:3 bass 
V:4 bass 
V:1
 [DB]2 [Dc]2 [Dd]2 | [Dd]4 [E^c]2 | [Dd]6 | [DG]2 [GA]2 [GB]2 | [GB]4 [G^A]2 | [GB]6 | %6
 [Gc]2 [Gc]2 [Dc]2 | ([DB]2 [Gc]2) [Gd]2 | [Ad]4 [Fc]2 | [GB]4 [FA]2 | (G2 [FA]2) [GB]2 | %11
 [GB]4 [FA]2 | G6 |] %13
V:2
 x6 | x6 | x6 | x6 | x6 | x6 | x6 | x6 | x6 | x6 | G2 x4 | x6 | G6 |] %13
V:3
 G,2 [G,A,]2 [G,B,]2 | [G,B,]4 [G,^A,]2 | [G,B,]6 | [G,B,]2 [G,C]2 [G,D]2 | [G,D]4 [G,^C]2 | %5
 [G,D]6 | [E,C]2 [E,C]2 [F,A,]2 | (D2 E2) [G,B,]2 | [F,A,]4 [D,D]2 | [G,D]4 [CD]2 | %10
 ([B,D]2 [A,C]2) [G,D]2 | [D,D]4 [D,C]2 | [G,,B,]6 |] %13
V:4
 G,2 x4 | x6 | x6 | x6 | x6 | x6 | x6 | G,4 x2 | x6 | x6 | x6 | x6 | x6 |] %13

